X:1
T:Rockport, 76.76.78.76
T:Rockport, 76.76.78.76
T:Isaac Baker Woodbury (1819-1858)
T:Public Domain Courtesy of the Cyber Hymnal™
C:Isaac Baker Woodbury (1819-1858)
Z:Public Domain
Z:Courtesy of the Cyber Hymnal™
%%score ( 1 2 ) 3
L:1/8
Q:1/4=105
M:6/8
K:Bb
V:1 treble 
V:2 treble 
V:3 bass 
V:1
|: [DF]2 [DF] [DF]2 [DF] | [EG]2 [DF] [DB]2 [FB] | [Gc]2 [Gc] [Fd]2 [Ec] | [DB]6 :| %4
 [Bd]2 [Bd] ([Bd][Ac])[Bd] | [ce]2 [Bd] [Ac]2 [Ac] | [Ac]2 [Ac] ([Ac][GB])[Ac] | %7
 d2 [Ec] [DB]2 [EG] | [DF]2 [DF] [DF]2 [DF] | [EG]2 [DF] [DB]2 [FB] | [Gc]2 [Gc] [Fd]2 [Ec] | %11
 [DB]6 |] %12
V:2
|: x6 | x6 | x6 | x6 :| x6 | x6 | x6 | (BF) x4 | x6 | x6 | x6 | x6 |] %12
V:3
|: [B,,B,]2 [B,,B,] [B,,B,]2 [B,,B,] | [B,,B,]2 [B,,B,] [B,,B,]2 [D,B,] | %2
 [E,B,]2 [E,B,] [F,A,]2 [F,A,] | [B,,B,]6 :| B,2 B, B,2 B, | A,2 B, F,2 F, | F,2 F, F,2 F, | %7
 B,2 F, B,,3 | [B,,B,]2 [B,,B,] [B,,B,]2 [B,,B,] | [B,,B,]2 [B,,B,] [B,,B,]2 [D,B,] | %10
 [E,B,]2 [E,B,] [F,A,]2 [F,A,] | [B,,B,]6 |] %12

